X:110 
T:Kaiser (slide), The 
T:Going to the Well for Water
B:CRE3.054 (An Kaiser) 
F:file ID: cre.3/110kaiser
R:slide
Q:180
M:12/8
L:1/8
K:D
A2f A2f A2f fed|B2g B2g B2g ged|
cde ABA AGA a2f|1 ged c2e d3 dcB:|
[2 ged c2e d3 d2||:e|f3-fed e3-edc|
d3-dcB c3-cBA|G2B G2B FGA FGA|\
EFE e2d cBc d2:|

%%%

